X:1
T:4 Songs, Op. 51
T:Je demande à l'oiseau / For My Love
T:4 Songs, Op. 51
T:Amy Marcy Beach
T:4. Je demande à l'oiseau For My Love 
T:Armand Silvestre English text by Isidora Martinez 
T:Creative Commons copyright waiver (CC0 1.0 Universal)
T:Creative Commons copyright waiver (CC0 1.0 Universal)
T:Creative Commons copyright waiver (CC0 1.0 Universal)
C:Amy Beach
Z:Armand Silvestre
Z:Creative Commons copyright waiver (CC0 1.0 Universal)
%%score ( 1 2 ) { ( 3 5 ) | ( 4 6 ) }
L:1/8
Q:1/4=52
M:3/4
K:Gb
V:1 treble nm="Voice"
V:2 treble 
V:3 treble nm="Piano"
V:5 treble 
V:4 bass 
V:6 bass 
V:1
"^Lento con esprressione." z6 | z2 z2!pp! (3:2:2G2 F | F2- (3F E D (3:2:2E2 F | B2 B z (3z!p! B B | %4
w: |Je de-|mande * à l’oi- seau qui|pas- se Sur les|
w: |I en-|treat * of the pass- ing|swal- low, As it|
 d2 c B A3/2 G/ | E4 (3:2:2B2"^cresc." A | F2- (3F G A (3GB d |!mp!!>(! f3!>)! !tenuto!.e!pp! F G | %8
w: ar- bres, sans s’y po-|ser, Qu’il t’ap-|porte, _ à tra- vers _ l’es-|pa- ce, La ca-|
w: soars high on pin- ions|free, That far|swift- * er than sight _ can|fol- low, It may|
 e2"^poco rit."[Q:1/4=48]!<(! F F F B!<)! | %9
w: res- se de mon bai-|
w: bear my ca- ress to|
!p![Q:1/4=44] !tenuto!.B4"^a tempo"[Q:1/4=54]!mp! (3:2:2B2 B | %10
w: ser. Je de-|
w: thee. Of the|
"^poco à poco cresc." =A2 (3A =G F (3:2:2G2 A | =d2 d z z d | f2 e =d (3=c d B | %13
w: mande _ à la bri- se|plei- ne De|l’â- me mour- an- te des|
w: breeze la- den with in- cense|dy- ing, Which|flow’rs as they fade _ im-|
 =G2 z!<(! =d d =c!<)! |!<(! (=A2 (3:2:2B2) A (3(B=d) f!<)! |!f! (_a4 g2) | f2 z!mf!!<(! d =c d | %17
w: fleurs, De pren- dre un|peu _ de ton _ ha-|lei- *|ne, Pour en ve-|
w: part, I pray, my|thoughts _ un- to _ thee|fly- *|ing, One sigh a-|
 B B!<)!!f!!>(! f3 e!>)! |!mf! d6- |[Q:1/4=52]"^.5" d2 z2 z2 |!p![Q:1/4=50]!<(! (d6-!<)! | %21
w: nir sé- cher mes|pleurs.|_|Ah!|
w: lone from thy pure|heart.|_|Ah!|
"^rit."!>(! !tenuto!.d4!>)!!pp! (3(D!fermata!B3/2) !fermata!F/[Q:1/4=44] | %22
w: _ Je _ de-|
w: _ yes, _ I|
[Q:1/4=52]"^.5""^a tempo""^'A tempo' added with \nreturn of first theme\n" F2- (3F E D (3:2:2E2 F | %23
w: mande _ au so- leil de|
w: ask _ of the sun- light|
 B2 B) z z!p! B | d c B B (3(AB) G | E4!pp! B3/2 A/ |!<(! F2 (3:2:2G2 F (3(GB) d!<)! | %27
w: flam- me, Qui|boit la sève et fait _ les|vins Qu’il as-|pi- re tou- te _ mon|
w: glow- ing Which|warm- ly tints the gen- * ’rous|wine, That my|spi- rit in- to _ it|
!mp! f3!>(! e F G!>)! |!pp! e2!<(! F F F3/2 d/!<)! |!p! d6- | d2 z2!pp!!<(! (3:2:2d2 d | g6-!<)! | %32
w: â- me, Et la|verse à tes pieds di-|vins,|_ à tes|pieds|
w: flow- ing, May em-|brace thee with fire di-|vine!|_ with _|fire|
!>(! g4!>)!!pp! G2 |!<(! G6-!<)! |[Q:1/4=50]!>(! G6-!>)![Q:1/4=48][Q:1/4=42] | %35
w: _ di-|vins!|_|
w: _ di-|vine!|_|
!>(! !fermata!G6!>)! |] %36
w: |
w: |
V:2
 x6 | x6 | x6 | x6 | x6 | x6 | x6 | x6 | x6 | x6 | x2 (3=A =G F x2 | x6 | x4 (3=c=d B | x6 | x6 | %15
 x6 | x6 | x6 | x4!>(! x2 | x2!>)! x4 | x2 x2!>(! x2!>)! | x6 | x6 | x6 | x6 | x6 | x6 | x6 | x6 | %29
 x6 | x4 d2 | x6 | x6 | x6 | x3"^rall." x3 | x6 |] %36
V:3
!ppp! z2 !tenuto![B,D]2 !tenuto![B,D]2 | %1
"_legatissimo" !tenuto![B,D]2 !tenuto![B,D]2 !tenuto![B,D]2 | %2
 !tenuto![B,D]2 !tenuto![B,D]2 !tenuto![B,D]2 |!<(! [B,D]2 [B,=D]2 [B,E]2!<)! | %4
!pp! [DE]2 [CE]2 [CE]2 | [CEA]2 [CE]2 [C__E]2 |"_cresc." [B,D]2 [B,DB]2 [B,DB]2 | %7
!mp!!>(! [=A,=C=A]2!>)! [A,CA]2!ppp! [A,CA]2 | [_CF=A]2"_poco rit." [CFB]2 [CFB]2 | %9
!<(! [B,AB]2 [B,GB]2!<)!"_a tempo"!p! [Bd]2 |"_sempre legatissimo" =d2 [Bd]2 [Bd]2 | %11
 [=G=d=g]2 [=Ad=a]2 [Bfb]2 | [=Gf=g]2 [GBg]2 [Ee]2 | [E=Gc]2!<(! [=Ae=g]2 [Ae=a]2!<)! | %14
!<(! [=A=d=a]2 [Bdb]2 [Bfb]2!<)! |!f! [Bd_ab]2 [Bdb]2 [__Bdg__b]2 | [__Bdf__b]2 [Adfa]2 [FAf]2 | %17
 [GBg]2 [G__B]2 [GA]2 | [FA]2 a2 d2- | [FBd]2 b2!>(! x2!>)! |!p! [Fdf]2!>(! [F_ce]2 [FBd]2!>)! | %21
!pp! (.[G=c].[G_c])"_rit." ([FB-]2 [EB-]"_colla voce"!fermata![FB]) | %22
!ppp!"^a tempo"!<(! [B,D]2 [DBd]2 [dgd']2 | [B,D]2 [DGd]2 [dgd']2!<)! |!p! [EG]2 [EGe]2 [ege']2 | %25
!>(! [CE]2 [EAe]2 [ff']2!>)! |!pp! [B,D]2!<(! [Gdg]2 [gg']2!<)! | %27
!mp! [E=A=c]2!>(! [GA]2 [g=ag']2!>)! |!pp!!<(! [_CF=A]2 [FB]2 [dd']"_dolce  marcato"B | %29
 A2- (3AGF (3GBd-!<)! |!mp! ([F-df]2!>(! [Fce]2) [Fcd]2!>)! |!ppp!!<(! (_f2 e2) d2 | %32
 (e2 dcGA)!<)! |!mp! (([=CG-=A]6 | [DGB]4))!pp! [B,GB]2- | !fermata![B,GB]6 |] %36
V:4
 z2!ped! !tenuto![G,,D,]2 !tenuto![G,,D,]2!ped-up! | %1
!ped! !tenuto![G,,D,]2 !tenuto![G,,D,]2 !tenuto![G,,D,]2!ped-up! | %2
!ped! !tenuto![G,,D,]2 !tenuto![G,,D,]2 !tenuto![G,,D,]2!ped-up! | %3
!ped! [G,,D,]2 [G,,=D,]2!ped-up! [G,,E,]2 |!ped! [G,,E,]2 [G,,E,]2 [G,,E,]2!ped-up! | %5
!ped! [G,,F,]2 [G,,F,]2!ped-up! [G,,F,]2 |!ped! [G,,D,]2 [G,,D,]2 [G,,D,]2!ped-up! | %7
!ped! [G,,E,]2 [G,,E,]2!ped-up! [G,,E,]2 |!ped! [G,,D,]2 [G,,D,]2 [G,,__E,]2!ped-up! | %9
!ped! [G,,D,]2 [G,,D,]2!ped-up! G2 |!ped! [=DF]2 [DF]2 [B,DF]2!ped-up! | %11
!ped! [F,B,=DF]2 [F,B,DF]2 !arpeggio![=D,B,F]2!ped-up! |!ped! [B,,B,]2 [B,E]2 [B,,=G,]2!ped-up! | %13
!ped! [B,,=A,]2 [B,=CE=G]2 [B,_G]2!ped-up! |!ped! [B,F]2 [F,=DF]2 !arpeggio![=D,B,F]2!ped-up! | %15
"_sempre con pedale"!ped! (_D,,_D,) [B,DA]2 !arpeggio![E,__B,DG]2!ped-up! | %16
!ped! z!mf! (A,, [F,D]2) [A,D]2!ped-up! |!ped! z!mp! (A,, [E,D]2) [A,=C]2!ped-up! | %18
!ped! (D,A, F3-) [A,F]!ped-up! |!ped! (D,B, F2-) [F,DF]2!ped-up! |!ped! z (D,,D,A,B,D,)!ped-up! | %21
 x2 (D2 C2) |!ped! (G,,D, B,2)[K:treble] [DB]2!ped-up! | %23
[K:bass]!ped! (G,,D, B,2)[K:treble] [DB]2!ped-up! | %24
[K:bass]!ped! (G,,E, C2)[K:treble] [Ec]2!ped-up! | %25
[K:bass]!ped! (G,,F, C2)[K:treble] [__EFc]2!ped-up! | %26
[K:bass]!ped! (G,,D, B,2)[K:treble] [DBd]2!ped-up! | %27
[K:bass]!ped! (G,,E, =C2)[K:treble] [E=c]2!ped-up! | %28
[K:bass]!ped! (G,,D, _C2)[K:treble] [DFc] z!ped-up! |[K:bass]!ped! (G,,D, B,2) [B,D]2!ped-up! | %30
!ped! z G,,D,A, D2!ped-up! |!ped! z (G,,G,)(G,- [G,B,]2)!ped-up! | %32
!ped! z (G,, G,2) [G,CE]2!ped-up! |!ped! z!p! (G,,__E,)(E, __E2)!ped-up! | %34
!ped! z (.G,,"^rall.".D,.G,.D.D,)!ped-up! |!ped! !fermata!G,,,6!ped-up! |] %36
V:5
 x6 | x6 | x6 | x6 | x6 | x6 | x6 | x6 | x6 | x6 | x6 | x6 | x6 | x6 | x6 | x6 | x6 | x6 | %18
 x2 (3d"^dim."BA- A2 | x2 (3(d=cB (3:2:2c2 d-) | x6 | x6 | x6 | x6 | x6 | x6 | x6 | x6 | x6 | %29
 [B,D]2 D2 z2 | x6 | [_FB]4 F2 | [EG]4 z2 | x6 | x6 | x6 |] %36
V:6
 x6 | x6 | x6 | x6 | x6 | x6 | x6 | x6 | x6 | x6 | x6 | x6 | x6 | x6 | x6 | x6 | x6 | x6 | x6 | %19
 x6 | x6 | (.E.__E)DD,C-!fermata![D,C] | x4[K:treble] x2 |[K:bass] x4[K:treble] x2 | %24
[K:bass] x4[K:treble] x2 |[K:bass] x4[K:treble] x2 |[K:bass] x4[K:treble] x2 | %27
[K:bass] x4[K:treble] x2 |[K:bass] x4[K:treble] x2 |[K:bass] x6 | x6 | x6 | x6 | x6 | x6 | x6 |] %36

